X:1
T:Title
%%score { ( 1 3 5 7 ) | ( 2 4 6 8 ) }
L:1/8
Q:1/4=110
M:3/2
K:G
V:1 bass nm="Piano, unbenannt" snm="Pia."
V:3 bass 
V:5 bass 
V:7 bass 
V:2 treble 
V:4 treble 
V:6 treble 
V:8 treble 
V:1
 z E,^D,E, E,,B,A,B, F,A,G,F, | G,E,^D,E, E,,G,F,G, D,F,E,D, | %2
 E,E,^D,E, E,,[K:treble]E^DE B,=DC[K:bass]B, | CA,^G,A, A,,[K:treble]FEF ^CE^DC | %4
 ^D[K:bass]B,A,B, B,,[K:treble]BAB FAGF | GE^DE z cBc z .B2 A | z GFG z .A2 G z .F2 E | %7
 z ^D^CD[K:bass] z .E2 =D z .=C2 B, | .E,4 A,4 ^D4 | z B,[K:treble]^C^D z B,=CB, z FED | %10
 .E4[K:bass] C2 B,2 .A,4 | z ^D,E,B,, ^G,, .B,,3 z2 A,2 | .[^G,B,E]4 z4 z4 | %13
[M:4/4][Q:1/4=95] z2[K:treble] B2- BA/^G/ A2- | AG/F/ GA/G/ FG/A/ G>F | z4 z2 f2- | %16
 f z e2- e.d z2 | .^c2 z2 d4 | e6 z2 | ^G4 c4- | c z z2 B4 | A4 G4 | F4 G2 z2 | %23
 z E e4[K:bass][K:treble] ^d2 | e6[K:bass][K:treble] d2- | d z .c2 z4 | c6 z2 | z2 A4 z2 | %28
 z2 ^D2 E4[K:bass] | B,4 z2 B,2- | B,2 z2 B,2 E2- | E z D4 ^C2- | C z =B,4 _B,2 | %33
 z4 z2[K:treble] B2- | B2 z2 z4 | z2 A4 z2 | z2 B4 A2- | A z z2 z2 [^DG]2 | z4 B4- | B4 z2 B2 | %40
 B8 |[Q:1/4=65] E<.F z2 z2[K:bass] z/[K:treble] F/G/A/ | B/F/G/^D/ E/B/G/E/ d2 z c/B/ | %43
 z2 c4[K:bass] z2 | z8 | z2 z/ C,/B,,/A,,/ E,2 z/ D/[K:treble]C/B,/ | C2 A2 C2 A2 | %47
 z/ A/^G/F/ G/A/B/F/[K:bass] z/ .^D3/2 z2 | %48
 E,2 z2[K:treble] z/4 ._B/B/4 z/4 .B/B/4 z/4 .B/B/4 z/4 .B/B/4 | %49
 B2 z/ A/4G/4F/4E/4D/4^C/4 F/E/4D/4C/4[K:bass]B,/4A,/4^G,/4 F,/4A,/4.A,,3/2 |[K:treble] z2 e4 z2 | %51
 a/c'/4^g/4a/e/ c/d/e/B/ c/^G/A/E/ z/4 e/4f/4=g/4_B/=B/4^c/4 | %52
 E z/4 F/4E/4^D/4 E/4F/4G/4D/4E/4_B,/4=B,/4^C/4 D/4C/4.D3/2[K:bass] B,2 | %53
 B2 z/4 =D,/4E,/4F,/4G,/4A,/4B,/4[K:treble]C/4 D/4E/4F/4G/4A/4B/4c/4F/4 G<.A | %54
 z2[K:bass] .G,B,,- B,,2 z/[K:treble] e/d/^c/ | d/A/F/G/ A/F/G/E/ F/A/D/E/ F/D/E/^C/ | %56
 D/[K:bass]F,/A,/[K:treble]D/ F/A/d/^G/ A/E/F/^C/ D/[K:bass]A,/F,/D,/ | %57
[K:treble] z/ g3/2[K:bass] z2[K:treble] z4 | z8[K:bass] | %59
 z2 z z/[K:treble] A/- A2[K:bass][K:treble] z2 | %60
 ^G/4A/4B/E/4F/4G/[K:bass] B,/E/^G,/4A,/4B,/ E,/4F,/4G,/B,,/4E,/4^D,/4E,/4 z2[K:treble] | %61
 c2 z/ .B3/2 z[K:bass] z/ E,/- E,2 | z2[K:treble] .A2 z c[K:bass] z/[K:treble] E3/2 | %63
 z2[K:bass] z/[K:treble] F3/2 z B[K:bass] z/[K:treble] E3/2 | %64
 z2[K:bass] z/[K:treble] E3/2 z _B[K:bass] z/[K:treble] E3/2 | %65
 z2[K:bass] z/[K:treble] ^D3/2 z B[K:bass] z/[K:treble] E3/2- | E6 z2[K:bass] | %67
 z/ B,3/2[K:treble] z A[K:bass] z/[K:treble] ^G3/2 z d[K:bass] | %68
 z[K:treble] a z z/ F/ ^G/A/B/F/ .G2 | z2[K:bass] z z/ ^D/ [^G,B,E]2 z2 | %70
[Q:1/4=110] z/[K:treble] B/A/B/ G/A/F/G/ E/e/B/e/ G/B/E/c/ | %71
 ^D/c/D/c/ D/c/D/c/ =D/F/B/F/ D/F/B/F/ | ^C/B/C/B/ C/B/C/B/ =C/E/A/E/ C/E/A/E/ | %73
 B,/A/G/A/ F/B/A/B/ G/A/F/G/ E/G/F/E/ | z/ f/e/f/ d/e/^c/d/ B/b/f/b/ d/f/B/g/ | %75
 _B/g/B/g/ B/g/B/g/ A/^c/f/c/ A/c/f/c/ | ^G/f/G/f/ G/f/G/f/ =G/B/e/B/ G/B/e/B/ | %77
 F/e/d/e/ ^c/f/e/f/ d/e/c/d/ B/B/^d | e2 z d/e/ c/d/B/c/ A/B/G/A/ | %79
 z/ B,/[^DB] [E^c][F^d] [Ge]2 z [Ge] | [Ff]2 z2 z [Bd][_B^c][=Bd] | [Ee]2 z2 z [EA][E^G][EA] | %82
 B2 z2 z2 B2 | .e2 z2 z .G z2 | G/B/A/B/ G/e/d/e/ ^c/d/B/c/ _B/.=BF,/ | %85
 z/ f/e/f/ d/e/^c/e/ d/e/c/e/ d/e/c/e/ | d[_B^c][=Bd][ce] d2 z [Bd] | [E^c]2 z2 z [Af][^G=f][A^f] | %88
 [DB]2 z2 z [Ge][F^d][Ee] | _B .=B3 z2 z .A | G/f/G/f/ G/e/G/e/ F/e/F/e/ F/^d/F/d/ | %91
 E/d/E/d/ E/c/E/c/ ^D/B/D/B/ E/B/A/G/ | A/B/G/A/ F/A/G/F/ G/A/G/F/ E/G/F/E/ | %93
 F/G/E/F/ ^D/F/E/D/ E/B/D/B/ E/B/D/B/ | E/e/B/d/ c/d/B/d/ c/d/B/d/ c/d/B/d/ | %95
 c/a/g/a/ f/g/e/f/ z/ B/^d ef | .g2 z g f2 z2 | z b_b=b e2 z2 | z a^ga ^d e2 d | z4 .g2 z2 | %100
 ^c2 fe z4 | ^c2 z2 z cdc | B2 z2 z B^cB | _B =B2 _B f/=B/e/_B/ d/G/^c/F/ | %104
 B/E/A/^D/ G/^C/F/[K:bass]B,/ E/_B,/=D/=B,/ C/^G,/_B,/E,/ | %105
 ^D,/B,/F,/A,/ G,/[K:treble]E/B,/D/ C/F/^C/E/ D/G/^D/F/ | E/e/B/d/ .c2 z2 z F/A/ | %107
 G/A/F/A/ G/A/F/A/ G/B/F/A/ GD/=F/ | E/=F/D/F/ E/F/D/F/ E>E F/G/E/G/ | F>F G/A/F/A/ ^G>G A/B/G/B/ | %110
 _B=B/D/ ^C/B,/C/B,/ z/ f/e/f/ d/e/^c/d/ | B/b/f/b/ d/f/B/g/ _B/g/B/g/ B/g/B/g/ | %112
 A/^c/f/c/ A/c/f/c/ ^G/f/G/f/ G/f/G/f/ | G/B/e/B/ G/B/e/B/ F/e/d/e/ ^c/f/e/f/ | %114
 d/e/^c/d/ B/B/d- [^Gd-]/[Ad-]/[Fd-]/[Gd]/ z/ e/d/e/ | .c2 z c- cc z2 | z4 e/f/d/e/ f/g/e/f/ | %117
 g/a/f/g/ a/b/g/a/ b/c'/a/b/ g/a/f/a/ | %118
 z/[K:bass] G,/F,/G,/ E,/F,/D,/E,/ z/[K:treble] a/g/a/ f/g/e/f/ | d2 z/ e/d/e/ c2 z/ d/c/d/ | %120
 B/e/^d/e/ f/A/B/A/ G/c/B/c/ =d/=F/G/F/ | E/A/^G/A/ B/D/E/D/ C/A/=G/A/ F/G/E/F/ | %122
 ^DF B/E/A/D/ G/E/F/=D/ E/C/D/B,/ | %123
 C/A/B,/G/ A,/F/[K:bass]G,/E/ F,/[K:treble]F/G,/E/[K:bass] F,/E/F,/^D/ | %124
 z/ B,/A,/B,/ G,/[K:treble]B/A/B/ G2 z G | F/E/F/E/ F/E/F/E/ .F>B _B=B | %126
 E/^D/E/D/ E/D/E/D/ .E>A ^GA | ^DEAD BEcF | dGeA fBg^c | a^dbe c'/b/a/^g/ a/b/=g/a/ | %130
 f/g/e/f/ ^d/f/e/d/ e/b/d/b/ e/b/d/b/ | e/b/B/d/ c/d/B/c/ A/c/B/c/ A/B/G/A/ | %132
 F[B^d][^ce][df] [eg]2 z [Ge] | f/e/f/e/ f/e/f/e/ z B_B[=Bf] | .e2 z2 e2 z2 | %135
 [F^d]BA[Fd] B/-[Bb]/B/-[Bb]/ e/b/d/b/ | e/b/^d/b/ e/b/d/b/ e/b/d/b/ e/b/d/b/ | z2 z .A z .A z .A | %138
 z4 .A.A z2 | z/ A/B/F/ ^G/A/B/F/ G/^D/E/F/ E/[K:bass]A,/B,/F,/ | %140
 ^G,/B,/E/B,/ G,/^D,/E,/B,,/ .^G,,2 E,2- | E,2 z2 z4 |] %142
V:2
 z12 | z12 | z12 | z12 | z12 | z4 z2 E2 D2 C2 | .B,4 C2[K:bass] B,2 A,2 G,2 | %7
 .F,4 G,2 F,2 E,2 D,2 | .C,4 z2 B,,A,, z4 | z4 z G,A,G, F,4 | [E,,E,]4 z4 z4 | %11
 z4 z2 z B,, z .E2 ^D | .E,4 z4 z4 |[M:4/4] z2 B,2 C3 B,/A,/ | B,E,[K:treble] E4 ^D2 | %15
 E2 D^C/[K:bass]B,/ CF, z[K:treble] ^G/_B/ | z e/^d/ z[K:bass] F,/E,/ .F,>[K:treble]^c z e/=d/ | %17
 E^C F2- [=B,-F]2 B,2 | z4 z2 d2- | d z[K:bass] z2 z4 | D,2 D,,2 G,,2 z2 | .^C2 F,2 E,4- | %22
 E,F,/E,/ z F z A,/G,/ z[K:treble] B/A/ |[K:bass] E,2 z2 z4 | .[C,E,]2 z E z A, B,2 | %25
 .^G,>=G, =F,E, .D,>[K:treble]d z z/ B/ | %26
[K:bass] z/[K:treble] B/G/A/ A,2 B,2[K:bass] z/[K:treble] c/A/B/ |[K:bass] z z/ E/- E z z2 E2- | %28
 E z z2 z4 | z2 E,4 D,2- | D,2 z2 z4 | _B,,2 =B,,2 ^G,,2 _B,,2 | B,,2 G,,2 z ^C/B,/ z F | %33
 z E,/D,/ z[K:treble] F/E/[K:bass] D,D,D,.E, | ^C,D,/E,/ [F,,D,]2 [G,,B,,]2 ^G,,2 | %35
 z A,/G,/ F,/G,/E,/F,/ z B/A/ E,2- | E,2 ^D,2 [E,,E,]4 | z E, E4 z z/ F/ | z2 A,4 z2 | z8 | z8 | %41
 z2 E4 z2 | z4 z/[K:treble] B/^G/B/ z/ d/^G, | A,2 z/ .^G3/2 z2[K:bass] z/[K:treble] B/A/G/ | %44
 A/B/c/^G/ A/E/4A/4=G/=F/ E/F/E/D/ C/D/E/[K:bass]B,/ | %45
 C/4A,/4B,/4C/4[K:treble]D/4E/4F/4^G/4 A2 z/ B/A/G/ A2 |[K:bass] E,2 z2 E,2 z2 | %47
 E,2 z2 z2 z ^G,,- | G,,2 z2 z/4 .^C/C/4 z/4 .C/C/4 z/4 .C/C/4 z/4 .C/[K:treble]C/4 | %49
 [A,^CDF]2 z2 z4 | z2 z z/ B/- B2 z2 | z8 |[K:bass] z4 z2 z/ F3/2- | F2 z2 z4[K:treble] | %54
 G6[K:bass] z2 | [F,A,D]2 z2 z4 | z8 | z8 | z8[K:treble] | z/ G/A/E/ .FF- F2 z2 | z4 z2 z z/ d/ | %61
[K:bass] z/[K:treble] B/A/^G/ A>G z/ E3/2 z/ B/A/G/ | z4[K:bass] z/[K:treble] E3/2 z A[K:bass] | %63
 z/[K:treble] F3/2 z A[K:bass] z/[K:treble] F3/2 z G[K:bass] | %64
 z/[K:treble] E3/2 z G[K:bass] z/[K:treble] E3/2 z F[K:bass] | %65
 z/[K:treble] ^D3/2 z A[K:bass] z/[K:treble] E3/2 z =G- | G6[K:bass] z/[K:treble] ^D3/2 | %67
 z2[K:bass] z/ C3/2 z[K:treble] B[K:bass] z/[K:treble] ^G3/2 | %68
 z2[K:bass] z/[K:treble] .F3/2 z2 z z/ B/- | B2[K:bass] z2 z4 | z8 | z8 | z8 | z8 | %74
 z[K:treble] _B,=B,^C D2 z D | ^C2 z2 z F=F^F | B,2 z2 z E^DE | _B, =B,2 _B, =B,2 z A/B/ | %78
 z2 .E2 z4 | z8[K:bass] | ^D,/C/D,/C/ D,/C/D,/C/ =D,/F,/B,/F,/ D,/F,/B,/F,/ | %81
 ^C,/B,/C,/B,/ C,/B,/C,/B,/ =C,/E,/A,/E,/ C,/E,/A,/E,/ | %82
 B,,/A,/G,/A,/ F,/B,/A,/B,/ G,/A,/F,/G,/ E,/F,/D,/E,/ | %83
 C,/D,/B,,/C,/ A,,/B,,/G,,/A,,/ z/[K:treble] .B[K:bass]A/ B,,/B,/A,/B,/ | %84
 [E,E]2 z/[K:treble] G/F/G/ E/F/D/E/ z/[K:bass] F,/.E, | %85
 D,/E,/^C,/D,/ B,,/F,/_B,,/F,/ =B,,/F,/_B,,/F,/ =B,,/F,/_B,,/F,/ | %86
 B,,/F,/E,/F,/ D,/E,/^C,/D,/ B,,/B,/F,/B,/ D,/F,/B,,/G,/ | %87
 _B,,/G,/B,,/G,/ B,,/G,/B,,/G,/ A,,/^C,/F,/C,/ A,,/C,/F,/C,/ | %88
 ^G,,/F,/G,,/F,/ G,,/F,/G,,/F,/ =G,,/B,,/E,/B,,/ G,,/B,,/E,/B,,/ | z4 D,2[K:treble] .F2[K:bass] | %90
 B,2 z2 z4 | ^G,E, A,2- A,A, =G,F,/E,/ | F,/G,/E,/F,/ ^D,/F,/E,/D,/ E,/F,/E,/F,/ G,/B,/A,/G,/ | %93
 A,/B,/G,/A,/ F,/A,/G,/F,/ G,/A,/F,/A,/ G,/A,/F,/A,/ | %94
 G,^G, A,/[K:treble]E/G,/E/ A,/E/[K:bass]G,/E/ A,/E/G,/E/ | A,B,CA, B,[K:treble]A/B/ G/A/F/G/ | %96
 E/e/B/e/ G/B/E/c/ ^D/c/D/c/ D/c/D/c/ | D/F/B/F/ D/F/B/F/ ^C/B/C/B/ C/B/C/B/ | %98
 C/E/A/E/ C/E/A/E/ B,/A/G/A/ F/B/A/B/ | G/A/F/G/ E2 z d/e/ ^c/d/B/c/ | %100
 _B2 D/E/^C/D/ B,/=B/F/B/ D/F/B,/G/ | _B,/G/B,/G/ B,/G/B,/G/ A,/^C/F/C/ A,/C/F/C/ | %102
 ^G,/F/G,/F/ G,/F/G,/F/[K:bass] =G,/B,/E/B,/ G,/B,/E/B,/ | %103
 F,/[K:treble]E/D/E/ ^C/F/E/F/ z/ .FE/[K:bass] z/ .DC/ | z/ .B,A,/ z/ .G,F,/ z/ .E,D,/ z/ .^C,C,/ | %105
 B,,^D,E,^G, A,_B,=B,B,, | z4 .F,2[K:treble] .B2[K:bass] | %107
 E,/B,/^D,/B,/ E,/B,/D,/B,/ E,/G,/D,/F,/ E,/B,/B,,/=D,/ | %108
 C,/G,/B,,/G,/ C,/G,/B,,/G,/ C,/G,/^C,/A,/ D,/A,/C,/A,/ | %109
 D,/A,/^D,/B,/ E,/B,/D,/B,/ E,/B,/=F,/^C/ ^F,/C/=F,/C/ | %110
 E,/^C/D,/B,/ .E,F,/_B,/ D,[^C,B,][B,,=B,][_B,,E,] | [B,,D,]2 z [B,,D,] [^C,E,]2 z2 | %112
 z [F,A,][=F,^G,][^F,A,] [B,,B,]2 z2 | z4 z .B,3 | [B,,B,]2 z z/[K:treble] B/ E,2 z ^G, | %115
 A,2 .A2[K:bass] z4 | z4[K:treble] z A2 B- | B c2 d- d z z2 | B2 z2 z[K:bass] A,,D,C, | %119
 B,,/B,/A,/B,/ ^G,2 z/ A,/=G,/A,/ F,2 | G,/[K:treble]G/F/E/ ^D[K:bass]^D, E,/E/=D/C/ B,B,, | %121
 C,/C/B,/A,/ ^G,^G,, A,,2 z A, | B,/C/A,/B,/ G,/A,/F,/G,/ E,/C/D,/B,/ C,/A,/B,,/^G,/ | %123
 A,/F,/G,/E,/ F,/^D,/E,/^C,/ D,E,A,,B,, | .E,,2 z/ A,/F,/G,/ E,/E/B,/E/ G,/B,/E,/C/ | %125
 ^D,/C/D,/C/ D,/C/D,/C/ =D,/F,/B,/F,/ D,/F,/B,/F,/ | %126
 ^C,/B,/C,/B,/ C,/B,/C,/B,/ =C,/E,/A,/E,/ C,/E,/A,/E,/ | %127
 B,,/A,/G,/A,/ F,/B,/A,/B,/ G,/[K:treble]C/B,/C/ A,/D/C/D/ | B,/E/D/E/ C/F/E/F/ D/G/F/G/ E/A/G/A/ | %129
 F/B/A/B/ G/c/B/c/ AB c/d/B/c/ | A/B/G/A/ F/A/G/F/ G/A/F/A/ G/A/F/A/ | G^GA=G FGFE | %132
 .^D2[K:bass] z2 z4 | ^D,/C/D,/C/ D,/C/D,/C/ =D,/F,/B,/F,/ D,/F,/B,/F,/ | %134
 ^C,/B,/C,/B,/ C,/B,/C,/B,/ =C,/E,/A,/E,/ C,/E,/A,/E,/ | %135
 B,,/A,/G,/A,/ F,/B,/A,/B,/ G,/A,/F,/A,/ G,/A,/F,/A,/ | %136
 G,/A,/F,/A,/ G,/A,/F,/A,/ G,/A,/F,/A,/ G,/A,/F,/A,/ | %137
 G,/4E,/4G,/4C/4 z/ [E,E]/ [B,E]B,, [EF]B,,[B,EF]B,, | %138
 [^DF][K:treble][DF][EF][EF][K:bass] z2[K:treble] z[K:bass] B,, | E,2 z2 z4 | %140
 z4 z2[K:treble] z/ B3/2- | B2 z2 z4 |] %142
V:3
 x12 | x12 | x5[K:treble] x6[K:bass] x | x5[K:treble] x7 | x[K:bass] x4[K:treble] x7 | %5
 z4 .E,4 F2 E2 | .^D4 E2 =D2 C2 B,2 | .A,4[K:bass] B,2 A,2 G,2 F,2 | z B,A,^G, z C, E2 z A,=G,F, | %9
 G,4[K:treble] E4 A,4 | z[K:bass] B,^G,B, z .A,2 G, z F,^D,F, | .^G,4 z2 E,,6- | E,,2 z2 z4 z4 | %13
[M:4/4] x2[K:treble] x6 | x8 | GA B4 .[F_B]2 | B3 ^c _B=B- [Bd]2 | G-[G-d]/[Ge]/ d>^c z F z d | %18
 z/ B/c/B/ A/B/G/A/ F4 | z e/d/ c>B z E A/B/=G/A/ | z d/c/ B>A z/ F/G/F/ E/F/D/E/ | %21
 z ^D/E/ z B/A/ z B, z A/G/ | z2 B2 c2- [Fc]2 | %23
 .[EB]>F, z[K:bass] A,/G,/ F,G,/A,/[K:treble] z z/ F,/ | %24
 z[K:bass] F,/G,/ z2[K:treble] z d/^c/ z E/D/ | Ec/B/ A-[A-d]/[A-c]/ [A-B][Ac] [^Gc]2 | %26
 .A2 F/G/E/F/ z/ c/d/c/ .B2 | .[EG]2 z F z G/F/ GA/G/ | %28
 z ^D/^C/ z G/F/ z[K:bass] A,/^G,/ z =D/=C/ | z G,/F,/ G,C/B,/ z G,/A,/ z z/ F,/ | %30
 ^G,F,/E,/ C2 z =G,/F,/ z F,/E,/ | z D/^C/ z G,/F,/ z C/B,/ z F,/E,/ | %32
 z B,/_B,/ z E,/D,/ ^C,2 F,2- | [F,G-] G3 .F>^C,[K:treble] z z/ D,/ | %34
 G2 _B->[^C,B] =B-[GB-]/[FB-]/ [EB-]/[FB-]/[DB-]/[EB-]/ | BE z2 B,2- [B,-G][B,-A]/[B,G]/ | %36
 FG/A/ z B, z A/^G/ z B,/A,/ | B,G/F/ GA/G/ FG/A/ B,2- | [B,E-] E3 ^D2 E2- | %39
 E2 z A/B/ cd/c/ z z/ A/ | x8 | z2 z z/ B,/- B,2[K:bass] z2[K:treble] | x8 | %43
 c/d/e/B/ z2 z[K:bass] C,3 | x8 | x7[K:treble] x | z/ E/F/^G/ z/ D/C/B,/ z/ B/A/G/ z/ C/B,/A,/ | %47
 B,2 z2[K:bass] ^G4- | G2 z2[K:treble] =G/G/G/G/ G/G/G/G/ | x21/4[K:bass] x11/4 | %50
[K:treble] e/f/g/^d/ z2 z/ .DD/- Df/^g/ | x8 | z4 z[K:bass] ^D,3- | D,2 z2[K:treble] z2 z B- | %54
 B6[K:bass] z2[K:treble] | x8 | x/[K:bass] x[K:treble] x5[K:bass] x3/2 | %57
[K:treble] g/<.a/[K:bass]E,, z/[K:treble] B/^c/d/ e/f/B/d/ c/G/A/E/ | %58
 F/A/d/E/ F/G/A/E/ F/^C/D/[K:bass]A,/ .F,2 | %59
 z4[K:treble] z[K:bass] D,,[K:treble] d/4e/4=f/4e/4d/4c/4B/4A/4 | z4[K:bass] z2 ^G,,2[K:treble] | %61
 z2 z c- c2[K:bass] z2 | z z/[K:treble] ^G/ z c z z/[K:bass] A,,/ z[K:treble] c | %63
 z B[K:bass] ^D,2[K:treble] z2[K:bass] G,2[K:treble] | %64
 z B[K:bass] C,2[K:treble] z2[K:bass] F,2[K:treble] | %65
 z A[K:bass] B,2[K:treble] z2[K:bass] B,2[K:treble] | z4 z2 z A[K:bass] | %67
 z[K:treble] ^G z z/[K:bass] E,,/ z[K:treble] d z z/[K:bass] E,,/ | %68
 z/[K:treble] c3/2 z ^d z2 z/ E3/2- | E2[K:bass] E,A, z4 | x/[K:treble] x15/2 | x8 | x8 | x8 | %74
 .D2 z2 z4 | x8 | x8 | x8 | x8 | .F2 z2 z4 | x8 | x8 | .^D2 A[DF] [EG][FA]GF | %83
 E-[E-d][Ec][EB] .[^DA]E- [E-F]/[EG]/[DF] | z4 z2 z _B | B2 z2 z4 | x8 | x8 | x8 | %89
 F2 E[^C_B] .[F=B]B/f/ .BF/-[Ff]/ | x8 | x8 | x8 | x8 | x8 | z4 .^d2 z2 | x8 | x8 | x8 | %99
 e2 z/ b/a/b/ z/ e/f ed | z2 z/ .B3/2 z4 | x8 | x8 | x8 | x7/2[K:bass] x9/2 | %105
 x5/2[K:treble] x11/2 | x8 | x8 | x8 | x8 | z4 .B,2 z2 | x8 | x8 | x8 | x8 | z4 z2 B2 | c2 d2 z4 | %117
 x8 | g2[K:bass] z2 .^C,2[K:treble] z2 | x8 | x8 | x8 | x8 | %123
 x3[K:bass] x3/2[K:treble] x3/2[K:bass] x2 | .E2 z2[K:treble] z4 | x8 | x8 | x8 | x8 | x8 | x8 | %131
 x8 | x8 | F2 z2 f2 z2 | E/-[E-^d]/[E-e]/[Ed]/ e/d/e/d/ z A^G[Ae] | z .e3 .e.^dBB | BBBB BBBB | %137
 [Be]E/G/ F/B/[EF]/-[EFB]/ A/B/[EF]/-[EFB]/ A/B/[EF]/-[EFB]/ | %138
 A/B/A/B/ A/B/A/B/ [^DF]/-[DFB]/[EF]/-[EFB]/ A/B/.[DFA] | x13/2[K:bass] x3/2 | %140
 z4 z/ E,,B,,/- B,,2- | B,,2 z2 z4 |] %142
V:4
 x12 | x12 | x12 | x12 | x12 | x12 | x6[K:bass] x6 | x12 | z4 z4 B,,4- | B,,12 | x12 | %11
 z4 z4 E,2 F,2 | x12 |[M:4/4] x8 | x2[K:treble] x6 | z4[K:bass] z2 F,2[K:treble] | %16
 z2 G2[K:bass] z2[K:treble] B,2- | B,2 z2 z4 | z4 D4 | x2[K:bass] x6 | z4 z2 G,2- | G,2 z2 .E2 z2 | %22
 z2 ^D,2 E,2 A,,2[K:treble] |[K:bass] z .G, .[C,G,]2 A,,2 [B,,G,]2 | z2 ^C,2 D,4 | %25
 z A, z2 z B,,[K:treble] E,2 |[K:bass] A,,2[K:treble] z2 z2[K:bass] B,,2[K:treble] | %27
[K:bass] z .F CB,/A,/ B,2 E,2 | z2 B,,2 C,3 B,,/A,,/ | B,,E,, z A,/G,/ .F,2 G,2 | %30
 z2 C,B,,/A,,/ E,2 .[^C,G,]2 | x8 | z4 E,,2 F,,2 | B,,2 ^C,2[K:treble][K:bass] z2 B,,2 | %34
 E,,2 z2 z4 | A,,4 B,,4- | B,,4 z4 | z4 z2 B,,2 | z A,/^G,/ z B,,/A,,/ z =G,/F,/ G,A,/G,/ | %39
 F,G, A,2 [E,E]-[E,-A,E-][E,-^G,E][E,-F,] | [E,^G,E]8 | z2 z G,- G,2 z2 | x9/2[K:treble] x7/2 | %43
 z2 z z/ E/- E2[K:bass] z2[K:treble] | x15/2[K:bass] x/ | x[K:treble] x7 |[K:bass] x8 | %47
 z4 z2 ^G,2- | G,2 z2 z4[K:treble] | x8 | z2 z/ .B3/2 E2 z/ .e3/2 | x8 | %52
[K:bass] [^C,E,_B,]2 z2 z2 z ^D- | D2 z2 z2 z z/[K:treble] F/ | z/ .D3/2[K:bass] z2 G,2 z2 | x8 | %56
 x8 | x8 | x15/2[K:treble] x/ | D2 z/ D3/2- D2 z2 | z4 z2 z B |[K:bass] A,,4[K:treble] A2 A,2 | %62
 z2 z A[K:bass] A,2[K:treble] z2[K:bass] | %63
 z[K:treble] A z z/[K:bass] B,,/ z[K:treble] A z z/[K:bass] E,/ | %64
 C2[K:treble] z2[K:bass] ^C,2[K:treble] z2[K:bass] | B,2[K:treble] z2[K:bass] B,2[K:treble] z2 | %66
 z4[K:bass] z2 B,,2[K:treble] | z[K:bass] E E,2 z2[K:treble][K:bass] E,2[K:treble] | %68
 z e[K:bass] .E,2[K:treble] z4 | e2[K:bass] z2 z4 | x8 | x8 | x8 | x8 | x[K:treble] x7 | x8 | x8 | %77
 x8 | G/A/F/G/ z/ e/F/^G/ A=GFE- | E[K:bass]A,/B,/ G,/A,/F,/G,/ E,/E/B,/E/ G,/B,/E,/C/ | x8 | x8 | %82
 x8 | z4 F,,[K:treble][K:bass]E,, z2 | z4[K:treble] z2 ^C2[K:bass] | x8 | x8 | x8 | x8 | %89
 F,,/E,/D,/E,/ ^C,/F,/E,/F,/ z/[K:treble] f/F z/ f/[K:bass]^D, | E,F,G,E, A,F,B,A, | x8 | x8 | x8 | %94
 x5/2[K:treble] x5/2[K:bass] x3 | x5[K:treble] x3 | x8 | x8 | x8 | x8 | x8 | x8 | x4[K:bass] x4 | %103
 z4[K:treble] D^C[K:bass]B,A, | G,F,E,D, ^C,B,,E,,F,, | x8 | %106
 C,^G,, A,,/A,/E,/G,/ z/[K:treble] d/A/c/ z/ G,/[K:bass]^D,/F,/ | x8 | x8 | x8 | x8 | x8 | x8 | %113
 z [E,G,][^D,F,][E,G,] [_B,,F,]=B,,E,[F,_B,] | z2 z B,,[K:treble] z4 | %115
 z/ d/B/c/ z/[K:bass] A,/G,/A,/ F,/G,/E,/F,/ G,/A,/F,/G,/ | z4[K:treble] C2 D2 | E2 F2 z2 D2 | %118
 x5[K:bass] x3 | x8 | x/[K:treble] x5/2[K:bass] x5 | x8 | x8 | x8 | x8 | x8 | x8 | %127
 x9/2[K:treble] x7/2 | x8 | x8 | x8 | x8 | %132
 z/[K:bass] B,,/A,,/B,,/ G,,/A,,/F,,/G,,/ E,,/E/B,/E/ G,/B,/E,/C/ | x8 | x8 | x8 | x8 | x8 | %138
 z/ B,,/[K:treble]B,/G,/ C/B,/C/[K:bass]A,/ B,/4A,/4G,/C/4B,/4[K:treble]A,/ .[B,EF]>[K:bass]B | %139
 x8 | z4 z2[K:treble] z z/ E/- | [Ee]2 z2 z4 |] %142
V:5
 x12 | x12 | x5[K:treble] x6[K:bass] x | x5[K:treble] x7 | x[K:bass] x4[K:treble] x7 | x12 | x12 | %7
 x4[K:bass] x8 | x12 | x2[K:treble] x10 | x[K:bass] x11 | x12 | x12 |[M:4/4] x2[K:treble] x6 | x8 | %15
 x8 | B,2 z2 F4 | z4 z2 B2- | B2 z2 z4 | x8 | F6 z2 | z2 ^D2 z2 E2 | z2 B,4 A,2- | %23
 A, z z2[K:bass] z4[K:treble] | z4[K:bass][K:treble] =F4 | x8 | z4 ^D4 | z4 ^D2 z2 | %28
 F4 z2[K:bass] A,2- | A, z z2 A,2 z2 | z2 A,4 z2 | F,4 E,4 | D,4 z4 | %33
 D2 [E,A,]2- [E,A,] B,2[K:treble] F | z2 FE .D2 z2 | C4 ^D,2 z2 | z4 C4 | x8 | x8 | z2 ^D2 z2 z D | %40
 x8 | z G3- G2[K:bass] E,,2[K:treble] | x8 | z4 C2[K:bass] z2 | x8 | x7[K:treble] x | x8 | %47
 z4[K:bass] z E3- | E2 z2[K:treble] z4 | x21/4[K:bass] x11/4 |[K:treble] z4 G4 | x8 | %52
 z4 z[K:bass] z/ F,/- F,2- | F,2 z2[K:treble] z4 | z z/[K:bass] D/- D4 z2[K:treble] | x8 | %56
 x/[K:bass] x[K:treble] x5[K:bass] x3/2 |[K:treble] x[K:bass] x3/2[K:treble] x11/2 | %58
 z4 z2[K:bass] z/ D,3/2- | D,4[K:treble] d2[K:bass][K:treble] z2 | %60
 z4[K:bass] z2 z/[K:treble] E3/2- | E4 z[K:bass] A,,3 | %62
 z2[K:treble] z/ E3/2 z2[K:bass] A,2[K:treble] | %63
 z z/[K:bass] ^D,,/ z[K:treble] B z z/[K:bass] E,,/ z[K:treble] B | %64
 z z/[K:bass] C,,/ z[K:treble] B z z/[K:bass] F,,/ z[K:treble] _B | %65
 z z/[K:bass] B,,/ z[K:treble] c z z/[K:bass] B,,/ z[K:treble] B- | B6 z z/[K:bass] B,,/ | %67
 E,2[K:treble] z2[K:bass] E,2[K:treble] z2[K:bass] | E,2[K:treble] z2 z2 z ^G- | %69
 G2[K:bass] z/ .E3/2 z4 | x/[K:treble] x15/2 | x8 | x8 | x8 | x8 | x8 | x8 | x8 | x8 | x8 | x8 | %81
 x8 | z .E3 z4 | x8 | x8 | x8 | x8 | x8 | x8 | x8 | x8 | x8 | x8 | x8 | x8 | x8 | x8 | x8 | x8 | %99
 x8 | z/ F/E/F/ z z/ _B/ .[=Bd]2 z d | x8 | x8 | x8 | x7/2[K:bass] x9/2 | x5/2[K:treble] x11/2 | %106
 x8 | x8 | x8 | x8 | x8 | x8 | x8 | x8 | z2 z .A z2 E2- | E3 E D3 E- | E F2 G- G z z2 | x8 | %118
 x/[K:bass] x4[K:treble] x7/2 | x8 | x8 | x8 | x8 | x3[K:bass] x3/2[K:treble] x3/2[K:bass] x2 | %124
 x5/2[K:treble] x11/2 | x8 | x8 | x8 | x8 | x8 | x8 | x8 | x8 | x8 | x8 | x8 | x8 | x8 | x8 | %139
 x13/2[K:bass] x3/2 | z4 z ^G,,3- | G,,2 z2 z4 |] %142
V:6
 x12 | x12 | x12 | x12 | x12 | x12 | x6[K:bass] x6 | x12 | x12 | x12 | x12 | x12 | x12 | %13
[M:4/4] x8 | x2[K:treble] x6 | x7/2[K:bass] x7/2[K:treble] x | G,4[K:bass] z B,,[K:treble] z2 | %17
 z2 _B,2 z4 | C2 ^C2 z A z =C/B,/ | E2[K:bass] E,2 A,2 A,,2 | x8 | x8 | x7[K:treble] x | %23
[K:bass] x8 | x8 | x11/2[K:treble] x5/2 |[K:bass] x/[K:treble] x11/2[K:bass] x/[K:treble] x3/2 | %27
[K:bass] C,2 z2 z4 | B,6 z2 | x8 | x8 | x8 | x8 | x3[K:treble] x[K:bass] x4 | x8 | x8 | x8 | x8 | %38
 C,4 B,,4- | B,,4 .^G,2 z2 | x8 | z z/ ^D/ z/ .B,3/2 z/ .B,,B,,/- B,,2 | z4 z2[K:treble] E2- | %43
 E2 z A- A2[K:bass] E,,2[K:treble] | x15/2[K:bass] x/ | x[K:treble] x7 |[K:bass] x8 | %47
 z4 z z/ B,/- B,2- | B,2 z2 E,/E,/E,/E,/ E,/E,/E,/E,/[K:treble] | x8 | z2 z G z2 .G,2 | x8 | %52
[K:bass] z4 z/ B,,3/2- B,,2- | B,,2 z2 z4[K:treble] | z[K:bass] B,3- B,2 z2 | x8 | x8 | x8 | %58
 z4 z2 z z/[K:treble] A,/- | A,4 z4 | x8 |[K:bass] x/[K:treble] x15/2 | %62
 A/B/ c2 z/[K:bass] A,,/ z[K:treble] A z z/[K:bass] A,,/ | %63
 ^D,2[K:treble] z2[K:bass] E,2[K:treble] z2[K:bass] | %64
 z[K:treble] G z z/[K:bass] C,,/ z[K:treble] G z z/[K:bass] F,,/ | %65
 z[K:treble] F z z/[K:bass] B,,/ z[K:treble] ^G z z/ A,/ | %66
 B,/[K:bass]F,/G,/^D,/ E,/B,,/C,/A,,/ B,,/F,,/A,,/4G,,/4F,,/4E,,/4 z[K:treble] F | %67
 z[K:bass] z/ E,,/ z E z[K:treble] z/[K:bass] E,,/ z[K:treble] B | %68
 z z/[K:bass] E,,/ z[K:treble] A z4 | z[K:bass] ^G,,2 F, [E,,G,,B,,E,]2 z2 | x8 | x8 | x8 | x8 | %74
 x[K:treble] x7 | x8 | x8 | x8 | x8 | x[K:bass] x7 | x8 | x8 | x8 | x9/2[K:treble] x/[K:bass] x3 | %84
 x5/2[K:treble] x4[K:bass] x3/2 | x8 | x8 | x8 | x8 | x9/2[K:treble] x5/2[K:bass] x | x8 | x8 | %92
 x8 | x8 | x5/2[K:treble] x5/2[K:bass] x3 | x5[K:treble] x3 | x8 | x8 | x8 | x8 | x8 | x8 | %102
 x4[K:bass] x4 | x/[K:treble] x11/2[K:bass] x2 | x8 | x8 | x9/2[K:treble] x5/2[K:bass] x | x8 | %108
 x8 | x8 | x8 | x8 | x8 | x8 | x7/2[K:treble] x9/2 | x5/2[K:bass] x11/2 | %116
 A,/B,/G,/A,/ B,/C/A,/B,/[K:treble] z4 | z4 G[Cc]BA | x5[K:bass] x3 | x8 | %120
 x/[K:treble] x5/2[K:bass] x5 | x8 | x8 | x8 | x8 | x8 | x8 | x9/2[K:treble] x7/2 | x8 | x8 | x8 | %131
 x8 | x/[K:bass] x15/2 | x8 | x8 | x8 | x8 | x8 | %138
 x[K:treble] x5/2[K:bass] x2[K:treble] x3/2[K:bass] x | x8 | z4 z2[K:treble] z ^G- | G2 z2 z4 |] %142
V:7
 x12 | x12 | x5[K:treble] x6[K:bass] x | x5[K:treble] x7 | x[K:bass] x4[K:treble] x7 | x12 | x12 | %7
 x4[K:bass] x8 | x12 | x2[K:treble] x10 | x[K:bass] x11 | x12 | x12 |[M:4/4] x2[K:treble] x6 | x8 | %15
 x8 | x8 | x8 | x8 | x8 | x8 | x8 | x8 | x3[K:bass] x3[K:treble] x2 | z2[K:bass] A,4[K:treble] z2 | %25
 x8 | x8 | x8 | x5[K:bass] x3 | x8 | x8 | x8 | x8 | x6[K:treble] x2 | x8 | x8 | x8 | x8 | x8 | x8 | %40
 x8 | z4 E,4[K:bass][K:treble] | x8 | z4 z/[K:bass] A,,3/2- A,,2 | x8 | x7[K:treble] x | x8 | %47
 z4[K:bass] z2 z z/ B,,/- | B,,2 z2[K:treble] z4 | x21/4[K:bass] x11/4 |[K:treble] z4 z .B,3 | x8 | %52
 z4 z2[K:bass] z z/ B,/- | B,2 z2[K:treble] z4 | z2[K:bass] z/ G,,3/2- G,,2 z2[K:treble] | x8 | %56
 x/[K:bass] x[K:treble] x5[K:bass] x3/2 |[K:treble] x[K:bass] x3/2[K:treble] x11/2 | %58
 z4 z2[K:bass] z F,- | F,4[K:treble] z4[K:bass][K:treble] | x2[K:bass] x9/2[K:treble] x3/2 | %61
 x5[K:bass] x3 | x3/2[K:treble] x4[K:bass] x[K:treble] x3/2 | %63
 x3/2[K:bass] x[K:treble] x3[K:bass] x[K:treble] x3/2 | %64
 x3/2[K:bass] x[K:treble] x3[K:bass] x[K:treble] x3/2 | %65
 x3/2[K:bass] x[K:treble] x3[K:bass] x[K:treble] x3/2 | x15/2[K:bass] x/ | %67
 x[K:treble] x5/2[K:bass] x[K:treble] x3[K:bass] x/ | x/[K:treble] x15/2 | %69
 z z/[K:bass] B,,/- B,, z z4 | x/[K:treble] x15/2 | x8 | x8 | x8 | x8 | x8 | x8 | x8 | x8 | x8 | %80
 x8 | x8 | x8 | x8 | x8 | x8 | x8 | x8 | x8 | x8 | x8 | x8 | x8 | x8 | x8 | x8 | x8 | x8 | x8 | %99
 x8 | x8 | x8 | x8 | x8 | x7/2[K:bass] x9/2 | x5/2[K:treble] x11/2 | x8 | x8 | x8 | x8 | x8 | x8 | %112
 x8 | x8 | x8 | x8 | x8 | x8 | x/[K:bass] x4[K:treble] x7/2 | x8 | x8 | x8 | x8 | %123
 x3[K:bass] x3/2[K:treble] x3/2[K:bass] x2 | x5/2[K:treble] x11/2 | x8 | x8 | x8 | x8 | x8 | x8 | %131
 x8 | x8 | x8 | x8 | x8 | x8 | x8 | x8 | x13/2[K:bass] x3/2 | x8 | x8 |] %142
V:8
 x12 | x12 | x12 | x12 | x12 | x12 | x6[K:bass] x6 | x12 | x12 | x12 | x12 | x12 | x12 | %13
[M:4/4] x8 | x2[K:treble] x6 | x7/2[K:bass] x7/2[K:treble] x | x3[K:bass] x5/2[K:treble] x5/2 | %17
 x8 | x8 | x2[K:bass] x6 | x8 | x8 | x7[K:treble] x |[K:bass] x8 | x8 | x11/2[K:treble] x5/2 | %26
[K:bass] x/[K:treble] x11/2[K:bass] x/[K:treble] x3/2 |[K:bass] x8 | x8 | x8 | x8 | x8 | x8 | %33
 x3[K:treble] x[K:bass] x4 | x8 | x8 | x8 | x8 | x8 | x8 | x8 | z4 z G,,3 | x9/2[K:treble] x7/2 | %43
 z4 z z/[K:bass] E,/- E,2[K:treble] | x15/2[K:bass] x/ | x[K:treble] x7 |[K:bass] x8 | %47
 z4 z2 z/ E,,3/2- | E,,2 z2 z4[K:treble] | x8 | x8 | x8 |[K:bass] x8 | x15/2[K:treble] x/ | %54
 z2[K:bass] z z/ D,/- D,2 z2 | x8 | x8 | x8 | x15/2[K:treble] x/ | x8 | x8 | %61
[K:bass] x/[K:treble] x15/2 | x7/2[K:bass] x[K:treble] x3[K:bass] x/ | %63
 x/[K:treble] x3[K:bass] x[K:treble] x3[K:bass] x/ | %64
 x/[K:treble] x3[K:bass] x[K:treble] x3[K:bass] x/ | x/[K:treble] x3[K:bass] x[K:treble] x7/2 | %66
 x/[K:bass] x6[K:treble] x3/2 | x[K:bass] x4[K:treble] x/[K:bass] x[K:treble] x3/2 | %68
 x3/2[K:bass] x[K:treble] x11/2 | z/[K:bass] E,,3/2- E,,2 z4 | x8 | x8 | x8 | x8 | x[K:treble] x7 | %75
 x8 | x8 | x8 | x8 | x[K:bass] x7 | x8 | x8 | x8 | x9/2[K:treble] x/[K:bass] x3 | %84
 x5/2[K:treble] x4[K:bass] x3/2 | x8 | x8 | x8 | x8 | x9/2[K:treble] x5/2[K:bass] x | x8 | x8 | %92
 x8 | x8 | x5/2[K:treble] x5/2[K:bass] x3 | x5[K:treble] x3 | x8 | x8 | x8 | x8 | x8 | x8 | %102
 x4[K:bass] x4 | x/[K:treble] x11/2[K:bass] x2 | x8 | x8 | x9/2[K:treble] x5/2[K:bass] x | x8 | %108
 x8 | x8 | x8 | x8 | x8 | x8 | x7/2[K:treble] x9/2 | x5/2[K:bass] x11/2 | x4[K:treble] x4 | x8 | %118
 x5[K:bass] x3 | x8 | x/[K:treble] x5/2[K:bass] x5 | x8 | x8 | x8 | x8 | x8 | x8 | %127
 x9/2[K:treble] x7/2 | x8 | x8 | x8 | x8 | x/[K:bass] x15/2 | x8 | x8 | x8 | x8 | x8 | %138
 x[K:treble] x5/2[K:bass] x2[K:treble] x3/2[K:bass] x | x8 | z4 z2[K:treble] E,,2- | E,,2 z2 z4 |] %142

